source/img/icons/logo-text-mobile.svg

<svg viewBox="0 0 102 19" xmlns="http://www.w3.org/2000/svg">
<g clip-path="url(#clip0_135_3364)">
<path d="M1.42527 17.3435C0.530332 16.0812 0.0860778 14.5677 0.160792 13.0358V6.65115C0.0524166 5.10273 0.468853 3.56245 1.34624 2.26653C2.21557 1.26653 3.55907 0.804993 5.53481 0.804993C7.51056 0.804993 8.77503 1.26653 9.56533 2.11269C10.4233 3.1844 10.8454 4.52635 10.7508 5.88192V7.42038H6.87832V5.65115C6.9096 5.12788 6.82886 4.60399 6.64123 4.11269C6.54094 3.91437 6.38198 3.74979 6.18481 3.64012C5.98764 3.53046 5.76127 3.48072 5.53481 3.4973C4.98161 3.4973 4.58646 3.65115 4.4284 4.03576C4.24962 4.58232 4.1694 5.15488 4.19131 5.72807V13.9588C4.14957 14.515 4.25858 15.072 4.50743 15.5742C4.66549 15.9588 5.06064 16.1127 5.61384 16.1127C6.16705 16.1127 6.48317 15.9588 6.64123 15.5742C6.82091 15.0544 6.90127 14.5069 6.87832 13.9588V12.1127H10.7508V13.6511C10.8311 15.0288 10.4116 16.3902 9.56533 17.4973C8.77503 18.4204 7.43153 18.8819 5.53481 18.8819C3.6381 18.805 2.21557 18.3435 1.42527 17.3435Z" fill="#111111"/>
<path d="M15.4135 1.03577H19.9182L23.2375 18.5742H19.6021L18.9699 14.8819H16.3619L15.7296 18.5742H12.0152L15.4135 1.03577ZM18.6537 12.5742L17.7054 5.72807L16.757 12.5742H18.6537Z" fill="#111111"/>
<path d="M26.0035 3.95884H23.3165V1.03577H32.721V3.88192H30.034V18.5742H26.0035V3.95884Z" fill="#111111"/>
<path d="M39.9127 1.03577H46.8674V2.88192H42.3627V8.65115H45.998V10.4204H42.3627V16.8819H46.8674V18.6512H39.8337V1.03577H39.9127Z" fill="#111111"/>
<path d="M48.9221 1.03577H50.6608L55.7977 12.6511V1.03577H57.8525V18.5742H56.2719L51.0559 6.57423V18.5742H48.9221V1.03577Z" fill="#111111"/>
<path d="M60.2234 1.03577H67.178V2.88192H62.6733V8.65115H66.3087V10.4204H62.6733V16.8819H67.178V18.6512H60.2234V1.03577Z" fill="#111111"/>
<path d="M69.2328 1.03577H72.8682C74.2982 0.939617 75.7194 1.31935 76.8987 2.11269C77.768 2.805 78.1631 4.03577 78.1631 5.65115C78.1631 7.88192 77.4519 9.26654 75.9503 9.72808L78.4793 18.4973H76.0293L73.6585 10.2665H71.6827V18.4973H69.1538V1.03577H69.2328ZM72.7101 8.57423C73.5248 8.63958 74.3369 8.42152 75.002 7.95885C75.4761 7.57423 75.7132 6.805 75.7132 5.65115C75.7351 5.07796 75.6549 4.5054 75.4761 3.95885C75.2983 3.56666 74.9928 3.2423 74.6068 3.03577C74.0625 2.79434 73.465 2.6886 72.8682 2.72808H71.7617V8.49731H72.7101V8.57423Z" fill="#111111"/>
<path d="M81.3243 17.2665C80.5028 15.9216 80.1172 14.3666 80.2179 12.805V6.95884C80.1984 5.8441 80.3313 4.73179 80.613 3.65115C80.8775 2.84362 81.4045 2.14167 82.1146 1.65115C82.997 1.14274 84.015 0.901726 85.0387 0.958841C86.6983 0.958841 87.8838 1.34346 88.595 2.18961C89.4132 3.30691 89.8046 4.66737 89.7015 6.03576V6.65115H87.3306V6.11269C87.3341 5.46845 87.2813 4.8251 87.1725 4.18961C87.1059 3.78803 86.8785 3.42848 86.5403 3.18961C86.0961 2.90582 85.5689 2.77078 85.0387 2.80499C84.472 2.76965 83.9112 2.93343 83.4581 3.26653C83.2722 3.41901 83.1203 3.60681 83.0115 3.81844C82.9028 4.03007 82.8396 4.26107 82.8259 4.4973C82.7217 5.18498 82.6689 5.87911 82.6678 6.57423V13.1127C82.6095 14.1088 82.7712 15.1056 83.142 16.0358C83.4581 16.6511 84.0903 16.8819 85.0387 16.8819C85.4131 16.9273 85.793 16.8639 86.1305 16.6997C86.468 16.5354 86.7481 16.2777 86.9354 15.9588C87.353 14.9861 87.542 13.9349 87.4886 12.8819V11.6511H85.1968V9.88192H89.7805V18.5742H88.1999L87.9628 16.5742C87.7556 17.2445 87.3242 17.8281 86.7371 18.2323C86.15 18.6365 85.4409 18.8381 84.7226 18.805C84.0696 18.8424 83.4172 18.7214 82.8241 18.4529C82.231 18.1844 81.7156 17.7767 81.3243 17.2665Z" fill="#111111"/>
<path d="M94.8384 12.4204L90.9659 1.11269H93.3368L96.1029 9.57422L98.7899 1.11269H101.161L97.2883 12.4204V18.5742H94.9174V12.4204H94.8384Z" fill="#111111"/>
</g>
<defs>
<clipPath id="clip0_135_3364">
<rect width="101" height="18" fill="white" transform="translate(0.160782 0.804993)"/>
</clipPath>
</defs>
</svg>

<svg viewBox="0 0 102 19" xmlns="http://www.w3.org/2000/svg"><g clip-path="url(#a)" fill="#111"><path d="M1.425 17.343a6.865 6.865 0 0 1-1.264-4.307V6.65a6.95 6.95 0 0 1 1.185-4.384c.87-1 2.213-1.462 4.189-1.462s3.24.462 4.03 1.308a5.423 5.423 0 0 1 1.186 3.769V7.42H6.878V5.651a3.692 3.692 0 0 0-.237-1.538 1.12 1.12 0 0 0-.456-.473 1.164 1.164 0 0 0-.65-.143c-.553 0-.949.154-1.107.539a4.846 4.846 0 0 0-.237 1.692v8.23a3.111 3.111 0 0 0 .316 1.616c.158.385.554.539 1.107.539.553 0 .87-.154 1.027-.539.18-.52.26-1.067.237-1.615v-1.846h3.873v1.538a5.775 5.775 0 0 1-1.186 3.846c-.79.923-2.133 1.385-4.03 1.385-1.897-.077-3.32-.539-4.11-1.539ZM15.414 1.036h4.504l3.32 17.538h-3.636l-.632-3.692h-2.608l-.632 3.692h-3.715l3.399-17.538Zm3.24 11.538-.949-6.846-.948 6.846h1.897ZM26.003 3.959h-2.686V1.036h9.404v2.846h-2.687v14.692h-4.03V3.96ZM39.913 1.036h6.954v1.846h-4.504v5.77h3.635v1.768h-3.635v6.462h4.504v1.77h-7.033V1.035h.079ZM48.922 1.036h1.739l5.137 11.615V1.036h2.054v17.538h-1.58l-5.216-12v12h-2.134V1.036ZM60.223 1.036h6.955v1.846h-4.505v5.77h3.636v1.768h-3.636v6.462h4.505v1.77h-6.955V1.035ZM69.233 1.036h3.635a6.452 6.452 0 0 1 4.03 1.077c.87.692 1.265 1.923 1.265 3.538 0 2.23-.711 3.616-2.213 4.077l2.53 8.77h-2.45l-2.371-8.232h-1.976v8.231h-2.53V1.036h.08Zm3.477 7.538a3.524 3.524 0 0 0 2.292-.615c.474-.385.711-1.154.711-2.308a4.846 4.846 0 0 0-.237-1.692 1.974 1.974 0 0 0-.87-.923 3.69 3.69 0 0 0-1.738-.308h-1.106v5.77h.948v.076ZM81.324 17.267a7.613 7.613 0 0 1-1.106-4.462V6.959a12.26 12.26 0 0 1 .395-3.308 3.916 3.916 0 0 1 1.502-2c.882-.508 1.9-.75 2.924-.692 1.66 0 2.845.384 3.556 1.23a5.77 5.77 0 0 1 1.106 3.847v.615h-2.37v-.538a11.04 11.04 0 0 0-.159-1.923 1.533 1.533 0 0 0-.632-1 2.493 2.493 0 0 0-1.501-.385 2.417 2.417 0 0 0-1.58.462 1.7 1.7 0 0 0-.632 1.23 14.01 14.01 0 0 0-.16 2.077v6.539a6.815 6.815 0 0 0 .475 2.923c.316.615.948.846 1.897.846.374.045.754-.018 1.091-.182.338-.165.618-.422.805-.741a6.908 6.908 0 0 0 .554-3.077v-1.23h-2.292v-1.77h4.584v8.692H88.2l-.237-2a3.143 3.143 0 0 1-1.226 1.658 3.288 3.288 0 0 1-2.014.573 4.046 4.046 0 0 1-1.899-.352 3.932 3.932 0 0 1-1.5-1.186ZM94.838 12.42 90.966 1.113h2.37l2.767 8.461 2.687-8.461h2.371L97.288 12.42v6.154h-2.37V12.42h-.08Z"/></g><defs><clipPath id="a"><path fill="#fff" transform="translate(.16 .805)" d="M0 0h101v18H0z"/></clipPath></defs></svg>
